!!!!SEGMENT: pl-wtm--r-1337--001_stefani-jozef--mazur.krn
!!!cenid: 18xx:1844
!!!COM: Stefani, Józef
!!!COM-rismID: pe30024097
!!!CDT: 1800/04/16-1876/03/19
!!!CNT: Polish
!!!OTL: Mazur
!!!PDT:
!!!AGN: Secular; Mazurka
!!!SMS-siglum: PL-Wtm
!!!SMS-shelfmark: R 1337
!!!SMS-shelfwork: 001 W
!!!SMS-variant:
!!!SMS-altvar:
!!!NIFC-rismSourceID: 1001119020
!!!NIFC-islandoraID: pl-wtm:25214
!!!URL-pdf-islandora: https://repozytorium.nifc.pl/islandora/object/pl-wtm%3A25214/datastream/PDF/view
!!!URL-scan: https://polish.musicsources.pl/pl/lokalizacje/galeria/rekopisy/6189 @EN{Scan on Polish Music Herritage in Open Access Website} @PL{Skany w portalu Dziedzictwo Muzyki Polskiej w otwartym dostępie}
!!!ONB-nifc: UWAGA: 2 Mazury w zeszycie. 001 na str. 1-2, 7-8, 3
!!!AIN: 1 forte
!!!key:
**kern	**kern	**dynam
*part1	*part1	*part1
*staff2	*staff1	*
*Iforte	*Iforte	*
*I"Fortepian	*I"Fortepian	*
*clefF4	*clefG2	*
*k[f#c#]	*k[f#c#]	*
*D:	*D:	*
*M3/8	*M3/8	*
*>[A,B,B,C,D,D,E]	*>[A,B,B,C,D,D,E]	*>[A,B,B,C,D,D,E]
=1	=1	=1
*>A	*>A	*>A
!	!	!LO:DY:rj
8A 8E 8AA/	8aa 8cc# 8a\	f
.	(8qgg#X/	.
8r	4aaTT\)	.
8r	.	.
=2	=2	=2
8r	4.aaTTT\	.
8r	.	.
*clefG2	*	*
8e 8A/	.	.
=3	=3	=3
4f# 4d/	4.aaTTT\	.
8a 8f#/	.	.
=4	=4	=4
4g 4e/	4.aaTTT\	.
8f# 8d/	.	.
.	(32qqgg#X/LLL	.
.	32qqaa/JJJ)	.
!!LO:LB:g=original
==5	==5	==5
*clefF4	*	*
!LO:S:problem=note-level slur	!	!
(8B-XL (8G (8E (8C#\	16.e/LL	sf
.	32g/JJk	.
8A)) 8F#) 8D\)	8f#/L	.
8AJ 8F# 8D'\	8aT/J	.
=6	=6	=6
*rep	*	*
.	(32qqe/LLL	.
.	32qqg/JJJ)	.
!LO:S:problem=note-level slur	!	!
(8B-XL 8G 8E (8C#\	16.ee/LL	.
.	.	<
.	32g/JJk	.
8A 8F# 8D\))	8f#/L	.
8AJ 8F# 8D'\	8aT/J	.
*Xrep	*	*
=7	=7	=7
*rep	*	*
!LO:S:problem=note-level slur	!	!
(8B-XL 8G 8E (8C#\	16.e/LL	sf
.	32g/JJk	.
8A 8F# 8D\))	8f#/L	.
8AJ 8F# 8D'\	8aT/J	.
*Xrep	*	*
=8	=8	=8
*tremolo	*	*
.	(8qf#/	.
8GL 8E 8AA/	16.e/LL)	.
.	32B/JJk	.
8G 8E 8AA/	8c#/L	.
8GJ 8E 8AA/	8A/J	.
!!LO:LB:g=original
=9	=9	=9
!	!	!LO:DY:rj
16.DLL 16.DD/	16.ff#LL 16.dd 16.a/	f
32EJJk 32EE/	32cc#JJk 32a 32g/	.
8F#L 8FF#/	8ddL 8a/	.
8GJ 8GG/	8bJ 8g/	.
=10	=10	=10
8AL 8AA/	16.aLL 16.f#/	.
.	32gJJk 32e/	.
8A 8AA/	8eL 8c#/	.
8AJ 8AA/	8gJ 8e/	.
*Xtremolo	*	*
=11	=11	=11
16.ALL 16.D\	16.f#LL 16.d/	.
32AJJk 32E\	32cc#JJk 32a 32g/	.
8AL 8F#\	8ddL 8a/	.
8BJ 8G\	8eeJ 8b 8g/	.
=12	=12	=12
!LO:TX:t=P:problem=mixed beam	!	!
16.A\LL	16.aLL 16.f#/	.
32AA/JJk	32cc#JJk 32a 32g 32e/	.
8AA/L	8eeL 8cc# 8g/	.
8D/J	8ddJ 8f#/	.
=13	=13	=13
8A 8AA/	16.eeLL 16.cc# 16.a\	.
.	32ee\JJk	.
8c#L 8A 8G 8E\	8a\L	.
8c#J 8A 8G 8E\	8eeT\J	.
!!LO:LB:g=original
=14	=14	=14
*^	*	*
4.D/	8D\L	16.ff#LL 16.dd 16.a\	.
.	.	32ff#\JJk	.
.	8d 8A 8F#\	8a\L	.
.	8dJ 8A 8F#\	8ff#t\J	.
*v	*v	*	*
=15	=15	=15
8AA/	16.aa\LL	.
.	32gg\JJk	.
8AL 8G 8E\	8ee\L	.
8AJ 8G 8E\	8cc#\J	.
=16	=16	=16
*^	*	*
4.D/	8D\L	16.bb\LL	.
.	.	32aa\JJk	.
.	8A 8F#\	8ff#\L	.
.	8AJ 8F#\	8dd\J	.
*v	*v	*	*
=17	=17	=17
8A 8AA/	16.eeLL 16.cc# 16.a\	.
.	32ee\JJk	.
8c#L 8A 8G 8E\	16.g#X\LL	.
.	32a\JK	.
8c#J 8A 8G 8E\	8eeT\J	.
=18	=18	=18
*^	*	*
4.D/	8D\L	16.ff#LL 16.dd 16.a\	.
.	.	32ff#\JJk	.
.	8d 8A 8F#\	16.g#X\LL	.
.	.	32a\JK	.
.	8dJ 8A 8F#\	8ff#t\J	.
*v	*v	*	*
!!LO:LB:g=original
=19	=19	=19
8A 8AA/	16.bb\LL	.
.	32aa\JJk	.
8c#L 8A 8G 8E\	8gg\L	.
8c#J 8A 8G 8E\	8ee\J	.
=20	=20	=20
8D 8DD/	16.dd\LL	.
.	32dd\JJk	.
4d 4A 4F# 4D\	4dddT\	.
.	(<32qqccc#/LLL	.
.	32qqddd/JJJ);	.
==21	==21	==21
*k[fncnb-e-]	*k[fncnb-e-]	*
!LO:TX:a:t=P:problem=kasownik fn oktawę wyżej	!LO:TX:a:t=P:problem=kasownik fn oktawę wyżej	!LO:DY:rj
8BB-/	(16ddLL 16b-\	f
.	32cc#XL 32a\	.
.	32ddJJJ 32b-\	.
4D/	4ff 4b-\)	.
=22	=22	=22
8F\	(16ccLL 16a/	.
.	32bnL 32g#X/	.
.	32ccJJJ 32a/)	.
4FF/	4ff 4a\	.
!!LO:LB:g=original
=23	=23	=23
16.dLL 16.B-\	16.ddLL 16.b-/	.
32cJJk 32F\	32ccJJk 32f/	.
8B-L 8D\	8b-L 8d/	.
8dJ 8B-\	8b-J 8g/	.
=24	=24	=24
!	!LO:TUP:b:problem=klamra łukowa	!
8c 8A 8F\	24bn/LL	.
.	24cc/	.
.	24a/JJ	.
4c 4A 4F\	4f/	.
=25	=25	=25
8BB-/	(16ddLL 16b-\	.
.	32cc#XL 32a\	.
.	32ddJJJ 32b-\)	.
8D/L	8ffL 8b-\	.
8D/J	8ffJ 8b-\	.
=26	=26	=26
8F\	(16ccLL 16a/	.
.	32bnL 32g#X/	.
.	32ccJJJ 32a/)	.
!LO:TX:t=P:problem=mixed beam	!	!
8F\L	8ffL 8a\	.
8FF/J	8ffJ 8a\	.
!!LO:PB:g=original
=27	=27	=27
!LO:TX:t=P:problem=mixed beam	!	!
16.GG/LL	16.ddLL 16.b-\	.
32G\JJk	32bb-JJk 32dd\	.
8GL 8GG/	8ddL 8b-\	.
8G-XJ 8GG-X/	8eenJ 8b-\	.
=28	=28	=28
.	(8qgg/	.
8F 8FF/	16.ff\LL)	.
.	32een\JJk	.
8cL 8A 8F\	8ff\L	.
8cJ 8A 8F\	8ffJ 8cc 8a\	.
=29!|:	=29!|:	=29!|:
*>B	*>B	*>B
*^	*	*
!	!	!	!LO:DY:rj
4.F/	8F\L	16.ff\LL	p
.	.	32ff#X\JJk	.
.	8e- 8c 8A\	8gg\L	.
.	8e-J 8c 8A\	8cc\J	.
*v	*v	*	*
=30	=30	=30
8BB-\L	16.dd\LL	.
.	32gg\JJk	.
8d 8B- 8F\	8ff\L	.
8dJ 8B- 8F\	8dd\J	.
=31	=31	=31
8F 8FF/	16.dd\LL	.
.	32cc\JJk	.
8e-L 8c 8F\	8g/L	.
8e-J 8c 8F\	8a/J	.
!!LO:LB:g=original
=32	=32	=32
8BB-/	16.b-\LL	.
.	32cc\JJk	.
8dL 8B- 8F\	16.dd\LL	.
.	32gg\JK	.
8dJ 8B- 8F\	8ff\J	.
=33	=33	=33
.	(8qeen/	.
*^	*	*
4.F/	8F\L	16.ff\LL)	.
.	.	32ff#X\JJk	.
.	8e- 8c 8A\	8gg\L	.
.	8e-J 8c 8A\	8cc\J	.
*v	*v	*	*
=34	=34	=34
8BB-/	16.cc\LL	.
.	32gg\JJk	.
8dL 8B- 8F\	8ff\L	.
8dJ 8B- 8F\	8dd\J	.
=35	=35	=35
*^	*	*
4AA/	8AA\L	16.ff\LL	.
.	.	32een\K	.
.	8AJ 8F 8D\	16.dd\	.
.	.	32ff\K	.
8G 8En 8AA/	8ryy	16.ee\	.
.	.	32cc#X\JJk	.
*v	*v	*	*
=36	=36	=36
*tremolo	*	*
8FL 8D\	(4dd\	.
8F 8D\	.	.
8FJ 8D\	8ddd\)	.
*Xtremolo	*	*
!!LO:LB:g=original
=37	=37	=37
!	!	!LO:DY:rj
8BB- 8BBB-/	(16ddLL 16b-\	f
.	32cc#XL 32a\	.
.	32ddJJJ 32b-\)	.
4D 4DD/	4ff 4b-\	.
=38	=38	=38
8F 8FF/	(16ccLL 16a\	.
.	32bnL 32g#X\	.
.	32ccJJJ 32a\)	.
4F 4FF/	4ff 4a\	.
=39	=39	=39
16.dLL 16.B-\	16.ddLL 16.b-/	.
32cJJk 32F\	32ccJJk 32f/	.
8B-L 8D\	8b-L 8d/	.
8dJ 8B-\	8ddJ 8b-/	.
=40	=40	=40
!	!LO:TUP:b:problem=klamra łukowa	!
8c 8A 8F\	24bn/LL	.
.	24cc/	.
.	24a/JJ	.
4c 4A 4F\	4f/	.
=41	=41	=41
8BB- 8BBB-/	(16ddLL 16b-\	.
.	32cc#XL 32a\	.
.	32ddJJJ 32b-\)	.
8DL 8DD/	8ffL 8b-\	.
8DJ 8DD/	8ffJ 8b-\	.
!!LO:LB:g=original
=42	=42	=42
8E- 8EE-/	(16ggLL 16ee-\	.
.	32ff#XL 32dd\	.
.	32ggJJJ 32ee-\)	.
8B-L 8G 8E-\	8bb-L 8gg\	.
8B-J 8G 8E-\	8ggJ 8ee-\	.
=43	=43	=43
*^	*	*
4F/	8F\L	16.ffLL 16.dd\	.
.	.	32dddK 32bb-\	.
.	8dJ 8B-\	16.bb- 16.ff\	.
.	.	32ffK 32dd\	.
8e- 8c 8F\	8ryy	16.ee- 16.cc\	.
.	.	32ccJJk 32a\	.
*v	*v	*	*
=44	=44	=44
.	(8qcc/	.
8dL 8B-\	16.b-/LL)	.
.	32a/JJk	.
8dJ 8B-\	16.b-/LL	.
.	32b-/JJk	.
8B- 8BB-\	8bb- 8dd 8b-\	.
!!LO:PB:g=original
=45:|!	=45:|!	=45:|!
*>C	*>C	*>C
*k[bnenf#]	*k[bnenf#]	*
*M3/8	*M3/8	*
!	!	!LO:DY:rj
16.GLL 16.D 16.GG\	16.gLL 16.d 16.B/	f
32GJJk 32D 32GG\	32gJJk 32d 32B/	.
8GL 8D 8GG\	8gL 8d 8B/	.
8GJ 8D 8GG\	8gJ 8d 8B/	.
=46	=46	=46
*tremolo	*tremolo	*
8GL 8D 8GG\	8gL 8d 8B/	.
8G 8D 8GG\	8g 8d 8B/	.
8GJ 8D 8GG\	8gJ 8d 8B/	.
*Xtremolo	*Xtremolo	*
=47!|:	=47!|:	=47!|:
*>D	*>D	*>D
(>8qGG/	.	.
!	!LO:TUP:b:problem=klamra łukowa	!LO:DY:rj
8G\L)	24bLL 24g/	p
.	24cc 24a/	.
.	24bJJ 24g/	.
8D\	8aL 8f#/	.
8G\J	8bJ 8g/	.
=48	=48	=48
*^	*	*
4.D/	8D\L	16.ddLL 16.b\	.
.	.	32ccJJk 32a\	.
.	8c 8A\	4a 4f#/	.
.	8cJ 8A\	.	.
=49	=49	=49	=49
!	!	!LO:TUP:b:problem=klamra łukowa	!
4.D/	8D\L	24ccLL 24a/	.
.	.	24dd 24b/	.
.	.	24ccJJ 24a/	.
.	8B 8G#X 8E#X\	8bL 8g#X/	.
.	8AJ 8F#\	8ccJ 8a/	.
*v	*v	*	*
!!LO:LB:g=original
=50	=50	=50
8GG/	16.eeLL 16.cc\	.
.	32ddJJk 32b\	.
8BL 8G 8D\	4b 4g/	.
8BJ 8G 8D\	.	.
=51	=51	=51
!	!LO:TUP:a:problem=klamra łukowa	!
8c 8G 8E 8C\	24ggLL 24ee\	.
.	24aa 24ff#\	.
.	24ggJJ 24ee\	.
8r	8ff#L 8dd\	.
8c 8G 8E 8C\	8eeJ 8cc'\	.
=52	=52	=52
.	(<8qee 8qcc/	.
16.D\LL	16.ddLL 16.b\)	.
32D#X\JJk	32ccJJk 32a\	.
4E\	4b 4g/	.
=53	=53	=53
*^	*	*
4C/	8C\L	16gLL 16e/	.
.	.	32r	.
.	.	32eeJJk 32cc/	.
.	8B 8G 8D\	8ddL 8b/	.
8ryy	8cJ 8F# 8D\	8ccJ 8a/	.
*v	*v	*	*
=54	=54	=54
8GG/	16.bLL 16.g/	.
.	32ccJJk 32a/	.
8BL 8G 8D\	4dd 4b\	.
8BJ 8G 8D\	.	.
!!LO:LB:g=original
=55	=55	=55
!	!LO:TUP:a:problem=klamra łukowa	!
8c 8G 8E 8C\	24ggLL 24ee\	.
.	24aa 24ff#\	.
.	24ggJJ 24ee\	.
.	(<8qgg 8qee/	.
8r	8ff#L 8dd\)	.
8c 8G 8E 8C\	8ee'J 8cc\	.
=56	=56	=56
.	(<8qee 8qcc/	.
16.D\LL	16.ddLL 16.b\)	.
32D#X\JJk	32ccJJk 32a\	.
4E\	4b 4g/	.
=57	=57	=57
8C\L	16aLL 16e/	.
.	32r	.
.	32eeJJk 32cc/	.
8B 8G 8D\	8ddL 8b/	.
8AJ 8F# 8D\	8f#J 8c/	.
=58	=58	=58
16.G\LL	16.gLL 16.B/	.
32G\JJk	32gJJk 32B/	.
4GG/	4gg 4b 4g\;	.
=59||	=59||	=59||
*tremolo	*	*
!	!LO:TUP:a:problem=klamra łukowa	!LO:DY:rj
8BL 8G 8E\	24ee\LL	f
.	24dd#X\	.
.	24ee\JJ	.
8B 8G 8E\	8gg\L	.
8BJ 8G 8E\	8ee\J	.
*Xtremolo	*	*
!!LO:LB:g=original
=60	=60	=60
8BL 8F# 8BB\	16.dd#X\LL	.
.	32ccc\K	.
8B 8A 8F# 8D#X\	16.bb\	.
.	32aa#X\JK	.
8BJ 8BB\	8bb\J	.
=61	=61	=61
!	!LO:TUP:a:problem=klamra łukowa	!
8BL 8A 8D#X\	24ff#\LL	.
.	24ee#X\	.
.	24ff#\JJ	.
8B 8BB\	8bb\L	.
8BJ 8A 8D#\	8ff#\J	.
=62	=62	=62
*tremolo	*	*
.	(8qaa/	.
8BL 8G 8E\	16.gg\LL)	.
.	32ff#\K	.
8B 8G 8E\	16.gg\	.
.	32ff#\JK	.
8BJ 8G 8E\	8ee\J	.
=63	=63	=63
!	!LO:TUP:a:problem=klamra łukowa	!
8dL 8A 8F#\	24dd\LL	.
.	24cc#X\	.
.	24dd\JJ	.
8d 8A 8F#\	8ddd\L	.
8dJ 8A 8F#\	8cccn\J	.
=64	=64	=64
.	(8qccc/	.
8dL 8B 8G\	16.bb\LL)	.
.	32aa\K	.
8d 8B 8G\	16.bb\	.
.	32aa\JK	.
8dJ 8B 8G\	8gg\J	.
!!LO:LB:g=original
=65	=65	=65
8C 8CC/	16.gg\LL	.
.	32ff#\K	.
8GL 8E 8C\	16.ee\	.
.	32gg\K	.
8AJ 8F# 8E 8C\	16.ff#\	.
.	32ee\JJk	.
=66	=66	=66
8BL 8F# 8D#X 8BB\	16.dd#X\LL	.
.	32cc\JJk	.
8B 8F# 8D# 8BB\	[8b\L	.
8BJ 8F# 8D# 8BB\	16.b\L]	.
.	32dd#\JJ	.
=67	=67	=67
8C 8CC/	16.ee\LL	.
.	32dd#X\JJk	.
8GL 8E 8C\	8ee\L	.
8AJ 8F# 8E 8C\	8ff#\J	.
=68	=68	=68
8BL 8F# 8D#X 8BB\	16.dd#X\LL	.
.	32ff#\JK	.
8B 8F# 8D# 8BB\	8bb\J	.
8BJ 8F# 8D# 8BB\	(16bb\LL	.
.	32ccc#X\L	.
.	32ddd#X\JJJ)	.
!!LO:LB:g=original
=69	=69	=69
8C 8CC/	8.eee\L	.
8GL 8E 8C\	.	.
.	(32ee\LL	.
.	32ff#\JJJ	.
8AJ 8F# 8E 8C\	16gg\LL)	.
.	16aa'\JJ	.
=70	=70	=70
8B 8F# 8D#X 8BB\	8bb\	.
8AL 8AA/	8cccL 8aa 8ee^<\	.
8DnJ 8DDn/	8dddJ 8aa 8ff#^<\	.
!!LO:PB:g=original
=71:|!	=71:|!	=71:|!
*>E	*>E	*>E
*k[f#c#]	*k[f#c#]	*
!LO:S:problem=note-level slur	!	!
(8B-XL (8G (8E (8C#\	16.e/LL	sf
.	32g/JJk	.
8A) 8F#)) 8D\)	8f#/L	.
8AJ 8F# 8D\	8a/J	.
=72	=72	=72
*rep	*	*
.	(32qqe/LLL	.
.	32qqg/JJJ)	.
!LO:S:problem=note-level slur	!	!
(8B-XL (8G (8E (8C#\	16.ee/LL	.
.	.	<
.	32g/JJk	.
8A) 8F#)) 8D\)	8f#/L	.
8AJ 8F# 8D\	8aT/J	.
*Xrep	*	*
=73	=73	=73
*rep	*	*
!LO:S:problem=note-level slur	!	!
(8B-XL (8G (8E (8C#\	16.e/LL	sf
.	32g/JJk	.
8A) 8F#)) 8D\)	8f#/L	.
8AJ 8F# 8D\	8aT/J	.
*Xrep	*	*
=74	=74	=74
.	(8qf#/	.
8GL 8E 8AA/	16.e/LL)	.
.	32B/JJk	.
8G 8E 8AA/	8c#/L	.
8GJ 8E 8AA/	8A/J	.
.	.	f
=75	=75	=75
16.DLL 16.DD/	16.ff#LL 16.dd 16.a\	.
32EJJk 32EE/	32cc#JJk 32a 32g\	.
8F#L 8FF#/	8ddL 8a/	.
8GJ 8GG/	8bJ 8g/	.
=76	=76	=76
8AL 8AA\	16.aLL 16.f#/	.
.	32gJJk 32e/	.
8A 8AA\	8eL 8c#/	.
8AJ 8AA\	8gJ 8e/	.
*Xtremolo	*	*
!!LO:LB:g=original
=77	=77	=77
16.ALL 16.D\	16.f#LL 16.d/	.
32AJJk 32E\	32cc#JJk 32a 32g/	.
8AL 8F#\	8ddL 8a/	.
8BJ 8G\	8eeJ 8b 8g/	.
=78	=78	=78
!LO:TX:t=P:problem=mixed beam	!	!
16.A\LL	16.aLL 16.f#/	.
32AA/JJk	32cc#JJk 32a 32g 32e/	.
8AA/L	8eeL 8cc# 8g/	.
8D/J	8ddJ 8f#/	.
=79||	=79||	=79||
8A 8AA\	16.eeLL 16.cc# 16.a\	.
.	32ee\JJk	.
8c#L 8A 8G 8E\	8a\L	.
8c#J 8A 8G 8E\	8eeT\J	.
=80	=80	=80
*^	*	*
4.D/	8D\L	16.ff#LL 16.dd 16.a\	.
.	.	32ff#\JJk	.
.	8d 8A 8F#\	8a\L	.
.	8dJ 8A 8F#\	8ff#t\J	.
*v	*v	*	*
=81	=81	=81
8AA/	16.aa\LL	.
.	32gg\JJk	.
8AL 8G 8E\	8ee\L	.
8AJ 8G 8E\	8cc#\J	.
!!LO:LB:g=original
=82	=82	=82
*^	*	*
4.D/	8D\L	16.bb\LL	.
.	.	32aa\JJk	.
.	8A 8F#\	8ff#\L	.
.	8AJ 8F#\	8dd\J	.
*v	*v	*	*
=83	=83	=83
8A 8AA\	16.eeLL 16.cc# 16.a\	.
.	32ee\JJk	.
8c#L 8A 8G 8E\	16.g#X\LL	.
.	32a\JK	.
8c#J 8A 8G 8E\	8eeT\J	.
=84	=84	=84
*^	*	*
4.D/	8D\L	16.ff#LL 16.dd 16.a\	.
.	.	32ff#\JJk	.
.	8d 8A 8F#\	16.g#X\LL	.
.	.	32a\JK	.
.	8dJ 8A 8F#\	8ff#t\J	.
*v	*v	*	*
=85	=85	=85
8AA/	(8.bb\L	.
8AL 8G 8C#\	.	.
.	16aa\L	.
8AJ 8G 8C#\	16gg\	.
.	16ee\JJ)	.
=86	=86	=86
.	(8qcc#/	.
8AA/	16b/LL)	.
.	16a'/JJ	.
8AL 8G 8E 8C#\	8ff#\L	.
8AJ 8G 8E 8C#\	8ee\J	.
!!LO:LB:g=original
=87	=87	=87
8A 8F# 8D\	16.dd\LL	.
.	32ff#\JJk	.
8r	8aa\L	.
8A 8E 8C# 8AA\	8aaT\J	.
=88	=88	=88
*rep	*rep	*
8A 8F# 8D\	16.dd\LL	.
.	32ff#\JJk	.
8r	8aa\L	.
8A 8E 8C# 8AA\	8aaT\J	.
*Xrep	*Xrep	*
=89	=89	=89
*rep	*rep	*
8A 8F# 8D\	16.dd\LL	.
.	32ff#\JJk	.
8r	8aa\L	.
8A 8E 8C# 8AA\	8aaT\J	.
*Xrep	*Xrep	*
=90	=90	=90
8A 8F# 8D\	16.dd\LL	.
.	32ff#\JJk	.
8r	8aa\L	.
8G 8E 8AA\	8ccc#t\J	.
=91	=91	=91
8F# 8D\	16.dddLL 16.ff#\	.
.	32dd\JJk	.
8dL 8D\	8ff#L 8dd 8a\	.
8A#XJ 8AA#X\	8cc#J 8f#\	.
!!LO:LB:g=original
=92	=92	=92
8BL 8BB/	8ddL 8b 8f#/	.
8G 8GG/	8b 8g/	.
8EJ 8EE/	8eeJ 8g/	.
=93	=93	=93
*tremolo	*	*
8AL 8AA\	16a'\LL	.
.	(32dd\L	.
.	32ff#\JJJ)	.
8A 8AA\	8aa\L	.
8AJ 8AA\	8ccc#J 8aa 8gg 8ee\	.
=94	=94	=94
!LO:TX:t=P:problem=mixed beam	!	!
8dL 8D\	8ddd 8aa 8ff#\	.
(16B-X\L	8r	.
16A\J)	.	.
8AA/J	8ccc# 8aa 8gg 8ee\	.
=95	=95	=95
*	*rep	*
!LO:TX:t=P:problem=mixed beam	!	!
8D'\L	8ddd 8aa 8ff#\	.
(16B-X\L	8r	.
16A\J)	.	.
8AA'/J	8ccc# 8aa 8gg 8ee\	.
*	*Xrep	*
=96	=96	=96
*rep	*rep	*
!LO:TX:t=P:problem=mixed beam	!	!
8D'\L	8ddd 8aa 8ff#\	.
(16B-X\L	8r	.
16A\J)	.	.
8AA'/J	8ccc# 8aa 8gg 8ee\	.
*Xrep	*Xrep	*
=97	=97	=97
*rep	*rep	*
!LO:TX:t=P:problem=mixed beam	!	!
8D\L	8ddd 8aa 8ff#\	.
(16B-X\L	8r	.
16A\J)	.	.
8AA'/J	8ccc# 8aa 8gg 8ee\	.
*Xrep	*Xrep	*
!!LO:LB:g=original
=98	=98	=98
8D\	8ddd 8aa 8ff# 8dd\	.
8r	8r	.
8r	8r	.
=99	=99	=99
8d 8A 8F# 8D\	8fff# 8ddd 8aa\	.
8.r	8.r	.
16D\	16d/	.
=100	=100	=100
4.D\	4.d/	.
=101	=101	=101
8d 8A 8F# 8D\	8ddd 8aa 8ff# 8dd\	.
8r	8r	.
8r	8r	.
==	==	==
*-	*-	*-
!!!system-decoration: {(s1,s2)}
!!!RDF**kern: > = above
!!!RDF**kern: < = below
!!!RDF**dynam: < = "cresc:"
!!!ENC: Marta Lawrence
!!!END: 2021-05-03
!!!ENC: Krzysztof Stępień
!!!END: 2021-04-10
